logo/ethnio.svg

<?xml version="1.0" encoding="UTF-8"?>
<svg width="256px" height="256px" viewBox="0 0 256 256" version="1.1" xmlns="http://www.w3.org/2000/svg" preserveAspectRatio="xMidYMid">
    <title>Ethnio</title>
    <g>
        <path d="M128,0 C198.687347,0 256,57.3126531 256,128 C256,198.687347 198.687347,256 128,256 C57.3126531,256 0,198.687347 0,128 C0,57.3126531 57.3126531,0 128,0 Z" fill="#24373E"></path>
        <path d="M128,46.9681633 C172.773878,46.9681633 208.979592,83.2783673 208.979592,127.947755 C208.979592,172.617143 172.669388,208.927347 128,208.927347 C83.3306122,208.927347 47.0204082,172.721633 47.0204082,127.947755 C47.0204082,83.2783673 83.2783673,46.9681633 128,46.9681633 Z" fill="#F8F4EF"></path>
        <path d="M128,79.7779592 C154.592653,79.7779592 176.222041,101.355102 176.222041,128 C176.222041,154.644898 154.644898,176.222041 128,176.222041 C101.355102,176.222041 79.7779592,154.592653 79.7779592,127.947755 C79.7779592,101.302857 101.355102,79.7779592 128,79.7779592 Z" fill="#8EB0BD"></path>
    </g>
</svg>

<svg viewBox="0 0 256 256" xmlns="http://www.w3.org/2000/svg"><path fill="#24373E" d="M128 0c70.68 0 128 57.31 128 128 0 70.68-57.32 128-128 128C57.31 256 0 198.68 0 128 0 57.31 57.31 0 128 0Z"/><path fill="#F8F4EF" d="M128 46.96c44.77 0 80.97 36.31 80.97 80.97s-36.32 80.97-80.98 80.97c-44.67 0-80.98-36.21-80.98-80.98 0-44.67 36.25-80.98 80.97-80.98Z"/><path fill="#8EB0BD" d="M128 79.77c26.59 0 48.22 21.57 48.22 48.22 0 26.64-21.58 48.22-48.23 48.22s-48.23-21.63-48.23-48.28c0-26.65 21.57-48.17 48.22-48.17Z"/></svg>
